images/5461328.svg

<?xml version="1.0" encoding="UTF-8"?>
<svg xmlns="http://www.w3.org/2000/svg" xmlns:xlink="http://www.w3.org/1999/xlink" width="300pt" height="300pt" viewBox="0 0 300 300" version="1.1">
<defs>
<g>
<symbol overflow="visible" id="glyph0-0">
<path style="stroke:none;" d="M 0.453125 1.59375 L 0.453125 -6.34375 L 4.953125 -6.34375 L 4.953125 1.59375 Z M 0.953125 1.09375 L 4.453125 1.09375 L 4.453125 -5.84375 L 0.953125 -5.84375 Z M 0.953125 1.09375 "/>
</symbol>
<symbol overflow="visible" id="glyph0-1">
<path style="stroke:none;" d="M 0.890625 -6.5625 L 2.078125 -6.5625 L 4.984375 -1.078125 L 4.984375 -6.5625 L 5.84375 -6.5625 L 5.84375 0 L 4.65625 0 L 1.75 -5.484375 L 1.75 0 L 0.890625 0 Z M 0.890625 -6.5625 "/>
</symbol>
<symbol overflow="visible" id="glyph0-2">
<path style="stroke:none;" d="M 3.546875 -5.953125 C 2.898438 -5.953125 2.382812 -5.710938 2 -5.234375 C 1.625 -4.753906 1.4375 -4.101562 1.4375 -3.28125 C 1.4375 -2.445312 1.625 -1.789062 2 -1.3125 C 2.382812 -0.832031 2.898438 -0.59375 3.546875 -0.59375 C 4.191406 -0.59375 4.703125 -0.832031 5.078125 -1.3125 C 5.453125 -1.789062 5.640625 -2.445312 5.640625 -3.28125 C 5.640625 -4.101562 5.453125 -4.753906 5.078125 -5.234375 C 4.703125 -5.710938 4.191406 -5.953125 3.546875 -5.953125 Z M 3.546875 -6.6875 C 4.460938 -6.6875 5.195312 -6.375 5.75 -5.75 C 6.300781 -5.132812 6.578125 -4.3125 6.578125 -3.28125 C 6.578125 -2.238281 6.300781 -1.410156 5.75 -0.796875 C 5.195312 -0.179688 4.460938 0.125 3.546875 0.125 C 2.617188 0.125 1.878906 -0.179688 1.328125 -0.796875 C 0.773438 -1.410156 0.5 -2.238281 0.5 -3.28125 C 0.5 -4.3125 0.773438 -5.132812 1.328125 -5.75 C 1.878906 -6.375 2.617188 -6.6875 3.546875 -6.6875 Z M 3.546875 -6.6875 "/>
</symbol>
</g>
</defs>
<g id="surface34925">
<rect x="0" y="0" width="300" height="300" style="fill:rgb(100%,100%,100%);fill-opacity:1;stroke:none;"/>
<path style="fill:none;stroke-width:1.2;stroke-linecap:butt;stroke-linejoin:miter;stroke:rgb(0%,0%,0%);stroke-opacity:1;stroke-miterlimit:10;" d="M 35.25 163.523438 L 54.796875 150.871094 "/>
<path style="fill:none;stroke-width:1.2;stroke-linecap:butt;stroke-linejoin:miter;stroke:rgb(0%,0%,0%);stroke-opacity:1;stroke-miterlimit:10;" d="M 54.796875 150.871094 L 75.523438 161.46875 "/>
<path style="fill:none;stroke-width:1.2;stroke-linecap:butt;stroke-linejoin:miter;stroke:rgb(0%,0%,0%);stroke-opacity:1;stroke-miterlimit:10;" d="M 75.523438 161.46875 L 95.070312 148.816406 "/>
<path style="fill:none;stroke-width:1;stroke-linecap:butt;stroke-linejoin:miter;stroke:rgb(0%,0%,0%);stroke-opacity:1;stroke-miterlimit:10;" d="M 115.800781 159.417969 L 115.800781 159.417969 M 113.40625 157.609375 L 112.933594 158.535156 M 111.015625 155.800781 L 110.066406 157.65625 M 108.621094 153.988281 L 107.195312 156.773438 M 106.226562 152.179688 L 104.328125 155.894531 M 103.835938 150.371094 L 101.460938 155.011719 M 101.441406 148.5625 L 98.59375 154.132812 M 99.050781 146.753906 L 95.726562 153.25 M 96.941406 145.160156 L 93.199219 152.476562 "/>
<path style="fill:none;stroke-width:1.2;stroke-linecap:butt;stroke-linejoin:miter;stroke:rgb(0%,0%,0%);stroke-opacity:1;stroke-miterlimit:10;" d="M 115.800781 159.417969 L 128.453125 178.964844 "/>
<path style="fill:none;stroke-width:1.2;stroke-linecap:butt;stroke-linejoin:miter;stroke:rgb(0%,0%,0%);stroke-opacity:1;stroke-miterlimit:10;" d="M 139.054688 158.234375 L 115.800781 159.417969 "/>
<path style=" stroke:none;fill-rule:nonzero;fill:rgb(0%,0%,0%);fill-opacity:1;" d="M 139.054688 158.234375 L 124.792969 177.09375 L 132.109375 180.832031 Z M 139.054688 158.234375 "/>
<path style="fill:none;stroke-width:1.2;stroke-linecap:butt;stroke-linejoin:miter;stroke:rgb(0%,0%,0%);stroke-opacity:1;stroke-miterlimit:10;" d="M 139.054688 158.234375 L 158.597656 145.582031 "/>
<path style=" stroke:none;fill-rule:nonzero;fill:rgb(0%,0%,0%);fill-opacity:1;" d="M 158.597656 145.582031 L 163.953125 122.550781 L 155.75 122.109375 Z M 158.597656 145.582031 "/>
<path style="fill:none;stroke-width:1.2;stroke-linecap:butt;stroke-linejoin:miter;stroke:rgb(0%,0%,100%);stroke-opacity:1;stroke-miterlimit:10;" d="M 180.324219 153.957031 L 169.460938 149.769531 "/>
<path style="fill:none;stroke-width:1.2;stroke-linecap:butt;stroke-linejoin:miter;stroke:rgb(0%,0%,0%);stroke-opacity:1;stroke-miterlimit:10;" d="M 169.460938 149.769531 L 158.597656 145.582031 "/>
<path style="fill:none;stroke-width:1.2;stroke-linecap:butt;stroke-linejoin:miter;stroke:rgb(0%,0%,0%);stroke-opacity:1;stroke-miterlimit:10;" d="M 159.851562 122.332031 L 136.859375 118.65625 "/>
<path style="fill:none;stroke-width:1.2;stroke-linecap:butt;stroke-linejoin:miter;stroke:rgb(0%,0%,0%);stroke-opacity:1;stroke-miterlimit:10;" d="M 159.851562 122.332031 L 182.347656 116.335938 "/>
<path style="fill:none;stroke-width:1.2;stroke-linecap:butt;stroke-linejoin:miter;stroke:rgb(0%,0%,0%);stroke-opacity:1;stroke-miterlimit:10;" d="M 151.539062 100.582031 L 159.851562 122.332031 "/>
<path style="fill:none;stroke-width:1.2;stroke-linecap:butt;stroke-linejoin:miter;stroke:rgb(0%,0%,0%);stroke-opacity:1;stroke-miterlimit:10;" d="M 136.859375 118.65625 L 151.539062 100.582031 "/>
<path style="fill:none;stroke-width:1.2;stroke-linecap:butt;stroke-linejoin:miter;stroke:rgb(0%,0%,0%);stroke-opacity:1;stroke-miterlimit:10;" d="M 182.347656 116.335938 L 195 135.882812 "/>
<path style="fill:none;stroke-width:1.2;stroke-linecap:butt;stroke-linejoin:miter;stroke:rgb(0%,0%,0%);stroke-opacity:1;stroke-miterlimit:10;" d="M 195 135.882812 L 187.664062 144.917969 "/>
<path style="fill:none;stroke-width:1.2;stroke-linecap:butt;stroke-linejoin:miter;stroke:rgb(0%,0%,100%);stroke-opacity:1;stroke-miterlimit:10;" d="M 187.664062 144.917969 L 180.324219 153.957031 "/>
<path style=" stroke:none;fill-rule:nonzero;fill:rgb(0%,0%,0%);fill-opacity:1;" d="M 195 135.882812 L 218.03125 141.238281 L 218.472656 133.03125 Z M 195 135.882812 "/>
<path style="fill:none;stroke-width:1.2;stroke-linecap:butt;stroke-linejoin:miter;stroke:rgb(0%,0%,100%);stroke-opacity:1;stroke-miterlimit:10;" d="M 180.324219 153.957031 L 183.320312 165.207031 "/>
<path style="fill:none;stroke-width:1.2;stroke-linecap:butt;stroke-linejoin:miter;stroke:rgb(0%,0%,0%);stroke-opacity:1;stroke-miterlimit:10;" d="M 183.320312 165.207031 L 186.316406 176.453125 "/>
<path style=" stroke:none;fill-rule:nonzero;fill:rgb(100%,100%,100%);fill-opacity:1;" d="M 177.324219 148.457031 L 184.324219 148.457031 L 184.324219 159.457031 L 177.324219 159.457031 Z M 177.324219 148.457031 "/>
<g style="fill:rgb(0%,0%,100%);fill-opacity:1;">
  <use xlink:href="#glyph0-1" x="177.324219" y="157.120117"/>
</g>
<path style="fill:none;stroke-width:1.2;stroke-linecap:butt;stroke-linejoin:miter;stroke:rgb(0%,0%,0%);stroke-opacity:1;stroke-miterlimit:10;" d="M 185.605469 179.097656 L 196.84375 182.128906 "/>
<path style="fill:none;stroke-width:1.2;stroke-linecap:butt;stroke-linejoin:miter;stroke:rgb(100%,0%,0%);stroke-opacity:1;stroke-miterlimit:10;" d="M 196.84375 182.128906 L 208.085938 185.15625 "/>
<path style="fill:none;stroke-width:1.2;stroke-linecap:butt;stroke-linejoin:miter;stroke:rgb(0%,0%,0%);stroke-opacity:1;stroke-miterlimit:10;" d="M 187.03125 173.808594 L 198.269531 176.839844 "/>
<path style="fill:none;stroke-width:1.2;stroke-linecap:butt;stroke-linejoin:miter;stroke:rgb(100%,0%,0%);stroke-opacity:1;stroke-miterlimit:10;" d="M 198.269531 176.839844 L 209.511719 179.867188 "/>
<path style="fill:none;stroke-width:1.2;stroke-linecap:butt;stroke-linejoin:miter;stroke:rgb(0%,0%,0%);stroke-opacity:1;stroke-miterlimit:10;" d="M 186.316406 176.453125 L 169.828125 192.894531 "/>
<path style=" stroke:none;fill-rule:nonzero;fill:rgb(100%,100%,100%);fill-opacity:1;" d="M 204.796875 177.011719 L 212.796875 177.011719 L 212.796875 188.011719 L 204.796875 188.011719 Z M 204.796875 177.011719 "/>
<g style="fill:rgb(100%,0%,0%);fill-opacity:1;">
  <use xlink:href="#glyph0-2" x="204.796875" y="185.674805"/>
</g>
<path style="fill:none;stroke-width:1.2;stroke-linecap:butt;stroke-linejoin:miter;stroke:rgb(0%,0%,0%);stroke-opacity:1;stroke-miterlimit:10;" d="M 218.25 137.136719 L 228.792969 157.894531 "/>
<path style="fill:none;stroke-width:1.2;stroke-linecap:butt;stroke-linejoin:miter;stroke:rgb(0%,0%,0%);stroke-opacity:1;stroke-miterlimit:10;" d="M 224.191406 136.730469 L 232.621094 153.339844 "/>
<path style="fill:none;stroke-width:1.2;stroke-linecap:butt;stroke-linejoin:miter;stroke:rgb(0%,0%,0%);stroke-opacity:1;stroke-miterlimit:10;" d="M 230.960938 117.628906 L 218.25 137.136719 "/>
<path style="fill:none;stroke-width:1.2;stroke-linecap:butt;stroke-linejoin:miter;stroke:rgb(0%,0%,0%);stroke-opacity:1;stroke-miterlimit:10;" d="M 228.792969 157.894531 L 252.039062 159.148438 "/>
<path style="fill:none;stroke-width:1.2;stroke-linecap:butt;stroke-linejoin:miter;stroke:rgb(0%,0%,0%);stroke-opacity:1;stroke-miterlimit:10;" d="M 252.039062 159.148438 L 264.75 139.640625 "/>
<path style="fill:none;stroke-width:1.2;stroke-linecap:butt;stroke-linejoin:miter;stroke:rgb(0%,0%,0%);stroke-opacity:1;stroke-miterlimit:10;" d="M 248.722656 154.207031 L 258.890625 138.601562 "/>
<path style="fill:none;stroke-width:1.2;stroke-linecap:butt;stroke-linejoin:miter;stroke:rgb(0%,0%,0%);stroke-opacity:1;stroke-miterlimit:10;" d="M 252.039062 159.148438 L 257.3125 169.527344 "/>
<path style="fill:none;stroke-width:1.2;stroke-linecap:butt;stroke-linejoin:miter;stroke:rgb(100%,0%,0%);stroke-opacity:1;stroke-miterlimit:10;" d="M 257.3125 169.527344 L 262.582031 179.910156 "/>
<path style="fill:none;stroke-width:1.2;stroke-linecap:butt;stroke-linejoin:miter;stroke:rgb(0%,0%,0%);stroke-opacity:1;stroke-miterlimit:10;" d="M 264.75 139.640625 L 254.210938 118.878906 "/>
<path style="fill:none;stroke-width:1.2;stroke-linecap:butt;stroke-linejoin:miter;stroke:rgb(0%,0%,0%);stroke-opacity:1;stroke-miterlimit:10;" d="M 254.210938 118.878906 L 230.960938 117.628906 "/>
<path style="fill:none;stroke-width:1.2;stroke-linecap:butt;stroke-linejoin:miter;stroke:rgb(0%,0%,0%);stroke-opacity:1;stroke-miterlimit:10;" d="M 251.589844 124.222656 L 232.992188 123.222656 "/>
<path style="fill:none;stroke-width:1.2;stroke-linecap:butt;stroke-linejoin:miter;stroke:rgb(100%,0%,0%);stroke-opacity:1;stroke-miterlimit:10;" d="M 262.582031 179.910156 L 256.226562 189.664062 "/>
<path style="fill:none;stroke-width:1.2;stroke-linecap:butt;stroke-linejoin:miter;stroke:rgb(0%,0%,0%);stroke-opacity:1;stroke-miterlimit:10;" d="M 256.226562 189.664062 L 249.871094 199.417969 "/>
<path style=" stroke:none;fill-rule:nonzero;fill:rgb(100%,100%,100%);fill-opacity:1;" d="M 258.582031 174.410156 L 266.582031 174.410156 L 266.582031 185.410156 L 258.582031 185.410156 Z M 258.582031 174.410156 "/>
<g style="fill:rgb(100%,0%,0%);fill-opacity:1;">
  <use xlink:href="#glyph0-2" x="258.582031" y="183.073242"/>
</g>
</g>
</svg>

<svg xmlns="http://www.w3.org/2000/svg" xmlns:xlink="http://www.w3.org/1999/xlink" width="300pt" height="300pt" viewBox="0 0 300 300"><defs><symbol overflow="visible"><path d="M.453 1.594v-7.938h4.5v7.938zm.5-.5h3.5v-6.938h-3.5zm0 0"/></symbol><symbol overflow="visible" id="a"><path d="M.89-6.563H2.08l2.906 5.485v-5.484h.86V0H4.656L1.75-5.484V0H.89zm0 0"/></symbol><symbol overflow="visible" id="b"><path d="M3.547-5.953c-.65 0-1.164.242-1.547.72-.375.48-.563 1.13-.563 1.952 0 .835.188 1.49.563 1.967.383.48.898.72 1.547.72.644 0 1.156-.24 1.53-.72.376-.476.564-1.132.564-1.968 0-.822-.187-1.474-.562-1.954-.375-.477-.887-.72-1.53-.72zm0-.734c.914 0 1.648.312 2.203.937.55.617.828 1.438.828 2.47 0 1.042-.277 1.87-.828 2.483-.555.617-1.29.922-2.203.922-.93 0-1.668-.305-2.22-.922C.774-1.41.5-2.237.5-3.28c0-1.033.273-1.853.828-2.47.55-.625 1.29-.938 2.22-.938zm0 0"/></symbol></defs><g><path fill="#fff" d="M0 0h300v300H0z"/><path d="M35.25 163.523l19.547-12.652M54.797 150.87l20.726 10.6M75.523 161.47l19.547-12.654" stroke-width="1.2" stroke="#000" stroke-miterlimit="10" fill="none"/><path d="M115.8 159.418m-2.394-1.81l-.472.927m-1.918-2.734l-.95 1.856m-1.445-3.668l-1.425 2.785m-.968-4.593l-1.9 3.715m-.49-5.524l-2.376 4.642m-.02-6.45l-2.846 5.57m.457-7.378l-3.323 6.496m1.214-8.09l-3.74 7.317" stroke="#000" stroke-miterlimit="10" fill="none"/><path d="M115.8 159.418l12.653 19.547M139.055 158.234l-23.254 1.184" stroke-width="1.2" stroke="#000" stroke-miterlimit="10" fill="none"/><path d="M139.055 158.234l-14.262 18.86 7.316 3.738zm0 0"/><path d="M139.055 158.234l19.543-12.652" stroke-width="1.2" stroke="#000" stroke-miterlimit="10" fill="none"/><path d="M158.598 145.582l5.355-23.03-8.203-.443zm0 0"/><path d="M180.324 153.957l-10.863-4.187" stroke-width="1.2" stroke="#00f" stroke-miterlimit="10" fill="none"/><path d="M169.46 149.77l-10.862-4.188M159.852 122.332l-22.993-3.676M159.852 122.332l22.496-5.996M151.54 100.582l8.312 21.75M136.86 118.656l14.68-18.074M182.348 116.336L195 135.883M195 135.883l-7.336 9.035" stroke-width="1.2" stroke="#000" stroke-miterlimit="10" fill="none"/><path d="M187.664 144.918l-7.34 9.04" stroke-width="1.2" stroke="#00f" stroke-miterlimit="10" fill="none"/><path d="M195 135.883l23.03 5.355.443-8.207zm0 0"/><path d="M180.324 153.957l2.996 11.25" stroke-width="1.2" stroke="#00f" stroke-miterlimit="10" fill="none"/><path d="M183.32 165.207l2.996 11.246" stroke-width="1.2" stroke="#000" stroke-miterlimit="10" fill="none"/><path d="M177.324 148.457h7v11h-7zm0 0" fill="#fff"/><use xlink:href="#a" x="177.324" y="157.12" fill="#00f"/><path d="M185.605 179.098l11.24 3.03" stroke-width="1.2" stroke="#000" stroke-miterlimit="10" fill="none"/><path d="M196.844 182.13l11.242 3.026" stroke-width="1.2" stroke="#f00" stroke-miterlimit="10" fill="none"/><path d="M187.03 173.81l11.24 3.03" stroke-width="1.2" stroke="#000" stroke-miterlimit="10" fill="none"/><path d="M198.27 176.84l11.242 3.027" stroke-width="1.2" stroke="#f00" stroke-miterlimit="10" fill="none"/><path d="M186.316 176.453l-16.488 16.442" stroke-width="1.2" stroke="#000" stroke-miterlimit="10" fill="none"/><path d="M204.797 177.012h8v11h-8zm0 0" fill="#fff"/><use xlink:href="#b" x="204.797" y="185.675" fill="#f00"/><path d="M218.25 137.137l10.543 20.758M224.19 136.73l8.43 16.61M230.96 117.63l-12.71 19.507M228.793 157.895l23.246 1.253M252.04 159.148l12.71-19.507M248.723 154.207l10.168-15.605M252.04 159.148l5.273 10.38" stroke-width="1.2" stroke="#000" stroke-miterlimit="10" fill="none"/><path d="M257.313 169.527l5.27 10.383" stroke-width="1.2" stroke="#f00" stroke-miterlimit="10" fill="none"/><path d="M264.75 139.64l-10.54-20.76M254.21 118.88l-23.25-1.25M251.59 124.223l-18.598-1" stroke-width="1.2" stroke="#000" stroke-miterlimit="10" fill="none"/><path d="M262.582 179.91l-6.355 9.754" stroke-width="1.2" stroke="#f00" stroke-miterlimit="10" fill="none"/><path d="M256.227 189.664l-6.356 9.754" stroke-width="1.2" stroke="#000" stroke-miterlimit="10" fill="none"/><path d="M258.582 174.41h8v11h-8zm0 0" fill="#fff"/><use xlink:href="#b" x="258.582" y="183.073" fill="#f00"/></g></svg>
